public/assets/img/youtube.svg

<svg width="26" height="26" viewBox="0 0 26 26" fill="none" xmlns="http://www.w3.org/2000/svg">
<path d="M0 13C0 5.8203 5.8203 0 13 0C20.1797 0 26 5.8203 26 13C26 20.1797 20.1797 26 13 26C5.8203 26 0 20.1797 0 13Z" fill="#FF0000"/>
<path d="M19.6436 9.7896C19.4841 9.17698 19.0142 8.69456 18.4175 8.53083C17.3363 8.23328 13 8.23328 13 8.23328C13 8.23328 8.66377 8.23328 7.5824 8.53083C6.98574 8.69456 6.51585 9.17698 6.35638 9.7896C6.06668 10.8999 6.06668 13.2166 6.06668 13.2166C6.06668 13.2166 6.06668 15.5332 6.35638 16.6436C6.51585 17.2562 6.98574 17.7387 7.5824 17.9025C8.66377 18.1999 13 18.1999 13 18.1999C13 18.1999 17.3363 18.1999 18.4175 17.9025C19.0142 17.7387 19.4841 17.2562 19.6436 16.6436C19.9333 15.5332 19.9333 13.2166 19.9333 13.2166C19.9333 13.2166 19.9333 10.8999 19.6436 9.7896Z" fill="white"/>
<path d="M11.7 15.6001V11.2667L15.1667 13.4335L11.7 15.6001Z" fill="#FF0000"/>
</svg>

<svg width="26" height="26" fill="none" xmlns="http://www.w3.org/2000/svg"><path d="M0 13C0 5.82 5.82 0 13 0s13 5.82 13 13-5.82 13-13 13S0 20.18 0 13Z" fill="red"/><path d="M19.644 9.79a1.76 1.76 0 0 0-1.226-1.26C17.335 8.234 13 8.234 13 8.234s-4.336 0-5.418.298A1.76 1.76 0 0 0 6.356 9.79c-.29 1.11-.29 3.427-.29 3.427s0 2.316.29 3.427a1.76 1.76 0 0 0 1.226 1.259C8.664 18.2 13 18.2 13 18.2s4.336 0 5.418-.297a1.76 1.76 0 0 0 1.226-1.26c.29-1.11.29-3.426.29-3.426s0-2.317-.29-3.427Z" fill="#fff"/><path d="M11.7 15.6v-4.333l3.467 2.167L11.7 15.6Z" fill="red"/></svg>
